X:18856
T:Winter Fling
M:4/4
L:1/8
Q:200
C:Vincent Blin
R:Fling
Z:Transcribed by Claus Steinort.
K:D
df~f2 af~f2|defa ecAc|BFDF Bcdf|1~e3c dcBA:|2~e3c d2BA|:
FE{F}ED E2BA|FE{F}EE D2FA|BF~F2 Bcdf |1e2{g}ec dcBA:|2e2{f}ec d2BA


